CKC/img/icons/logo-f.svg

<svg width="183" height="43" viewBox="0 0 183 43" fill="none" xmlns="http://www.w3.org/2000/svg">
<path d="M54.8295 36.9357C53.2162 36.9357 51.7642 36.5984 50.4735 35.9237C49.1975 35.2344 48.1928 34.281 47.4595 33.0637C46.7262 31.8464 46.3595 30.4677 46.3595 28.9277C46.3595 27.3877 46.7262 26.009 47.4595 24.7917C48.1928 23.5744 49.1975 22.6284 50.4735 21.9537C51.7642 21.2644 53.2162 20.9197 54.8295 20.9197C56.2375 20.9197 57.5062 21.169 58.6355 21.6677C59.7648 22.1664 60.7035 22.885 61.4515 23.8237L58.6795 26.3317C57.6822 25.129 56.4722 24.5277 55.0495 24.5277C54.2135 24.5277 53.4655 24.711 52.8055 25.0777C52.1602 25.4444 51.6542 25.965 51.2875 26.6397C50.9355 27.2997 50.7595 28.0624 50.7595 28.9277C50.7595 29.793 50.9355 30.563 51.2875 31.2377C51.6542 31.8977 52.1602 32.411 52.8055 32.7777C53.4655 33.1444 54.2135 33.3277 55.0495 33.3277C56.4722 33.3277 57.6822 32.7264 58.6795 31.5237L61.4515 34.0317C60.7035 34.9704 59.7648 35.689 58.6355 36.1877C57.5062 36.6864 56.2375 36.9357 54.8295 36.9357ZM69.6453 30.7317H67.6653V36.6277H63.3313V21.2277H67.6653V27.2117H69.7553L73.4293 21.2277H78.0053L73.1873 28.6637L78.0493 36.6277H73.1433L69.6453 30.7317ZM86.8627 36.9357C85.2494 36.9357 83.7974 36.5984 82.5067 35.9237C81.2307 35.2344 80.226 34.281 79.4927 33.0637C78.7594 31.8464 78.3927 30.4677 78.3927 28.9277C78.3927 27.3877 78.7594 26.009 79.4927 24.7917C80.226 23.5744 81.2307 22.6284 82.5067 21.9537C83.7974 21.2644 85.2494 20.9197 86.8627 20.9197C88.2707 20.9197 89.5394 21.169 90.6687 21.6677C91.798 22.1664 92.7367 22.885 93.4847 23.8237L90.7127 26.3317C89.7154 25.129 88.5054 24.5277 87.0827 24.5277C86.2467 24.5277 85.4987 24.711 84.8387 25.0777C84.1934 25.4444 83.6874 25.965 83.3207 26.6397C82.9687 27.2997 82.7927 28.0624 82.7927 28.9277C82.7927 29.793 82.9687 30.563 83.3207 31.2377C83.6874 31.8977 84.1934 32.411 84.8387 32.7777C85.4987 33.1444 86.2467 33.3277 87.0827 33.3277C88.5054 33.3277 89.7154 32.7264 90.7127 31.5237L93.4847 34.0317C92.7367 34.9704 91.798 35.689 90.6687 36.1877C89.5394 36.6864 88.2707 36.9357 86.8627 36.9357ZM94.6866 28.7517H101.111V31.9637H94.6866V28.7517ZM115.074 24.6817H108.1V36.6277H103.81V21.2277H115.096L115.074 24.6817ZM124.084 21.2277C125.478 21.2277 126.688 21.4624 127.714 21.9317C128.741 22.3864 129.533 23.0464 130.09 23.9117C130.648 24.7624 130.926 25.767 130.926 26.9257C130.926 28.0844 130.648 29.089 130.09 29.9397C129.533 30.7904 128.741 31.4504 127.714 31.9197C126.688 32.3744 125.478 32.6017 124.084 32.6017H121.4V36.6277H117.044V21.2277H124.084ZM123.82 29.1697C124.715 29.1697 125.39 28.979 125.844 28.5977C126.299 28.2017 126.526 27.6444 126.526 26.9257C126.526 26.207 126.299 25.6497 125.844 25.2537C125.39 24.8577 124.715 24.6597 123.82 24.6597H121.4V29.1697H123.82ZM147.186 21.2277L140.806 33.1297C140.131 34.4057 139.303 35.3737 138.32 36.0337C137.352 36.6937 136.289 37.0237 135.13 37.0237C134.279 37.0237 133.37 36.833 132.402 36.4517L133.436 33.2397C134.037 33.4157 134.551 33.5037 134.976 33.5037C135.401 33.5037 135.775 33.4084 136.098 33.2177C136.435 33.027 136.743 32.7264 137.022 32.3157L131.038 21.2277H135.636L139.222 28.6637L142.94 21.2277H147.186ZM163.037 21.2277V36.6277H158.725V24.6817H152.873V36.6277H148.583V21.2277H163.037ZM180.783 21.2277V36.6277H176.471V24.6817H170.619V36.6277H166.329V21.2277H180.783Z" fill="white"/>
<path d="M7.64251 39.1276V26.2976L30.1125 9.88764L36.3025 14.4176L42.5125 9.88764L30.1125 0.827637L0.32251 22.5776V39.1276H7.64251Z" fill="#F9600A"/>
<path d="M31.9025 39.1276V26.2976L54.3725 9.88764H66.7725L54.3725 0.827637L24.5825 22.5776V39.1276H31.9025Z" fill="#F9600A"/>
</svg>

<svg width="183" height="43" fill="none" xmlns="http://www.w3.org/2000/svg"><path d="M54.83 36.936c-1.614 0-3.066-.338-4.356-1.012a7.748 7.748 0 01-3.014-2.86c-.734-1.218-1.1-2.596-1.1-4.136s.366-2.919 1.1-4.136a7.591 7.591 0 013.014-2.838c1.29-.69 2.742-1.034 4.356-1.034 1.407 0 2.676.249 3.806.748a7.323 7.323 0 012.816 2.156l-2.773 2.508c-.997-1.203-2.207-1.804-3.63-1.804-.835 0-1.584.183-2.243.55a3.893 3.893 0 00-1.518 1.562c-.352.66-.528 1.422-.528 2.288 0 .865.175 1.635.528 2.31a3.93 3.93 0 001.518 1.54c.66.366 1.408.55 2.244.55 1.422 0 2.632-.602 3.63-1.804l2.772 2.508a7.323 7.323 0 01-2.816 2.156c-1.13.498-2.399.748-3.806.748zm14.815-6.204h-1.98v5.896h-4.334v-15.4h4.334v5.984h2.09l3.674-5.984h4.576l-4.818 7.436 4.862 7.964h-4.906l-3.498-5.896zm17.218 6.204c-1.614 0-3.066-.338-4.356-1.012a7.748 7.748 0 01-3.014-2.86c-.734-1.218-1.1-2.596-1.1-4.136s.366-2.919 1.1-4.136a7.591 7.591 0 013.014-2.838c1.29-.69 2.742-1.034 4.356-1.034 1.408 0 2.676.249 3.806.748a7.323 7.323 0 012.816 2.156l-2.772 2.508c-.998-1.203-2.208-1.804-3.63-1.804-.836 0-1.584.183-2.244.55a3.893 3.893 0 00-1.518 1.562c-.352.66-.528 1.422-.528 2.288 0 .865.176 1.635.528 2.31a3.93 3.93 0 001.518 1.54c.66.366 1.408.55 2.244.55 1.422 0 2.632-.602 3.63-1.804l2.772 2.508a7.323 7.323 0 01-2.816 2.156c-1.13.498-2.398.748-3.806.748zm7.824-8.184h6.424v3.212h-6.424v-3.212zm20.387-4.07H108.1v11.946h-4.29v-15.4h11.286l-.022 3.454zm9.01-3.454c1.394 0 2.604.234 3.63.704 1.027.454 1.819 1.114 2.376 1.98.558.85.836 1.855.836 3.014 0 1.158-.278 2.163-.836 3.014-.557.85-1.349 1.51-2.376 1.98-1.026.454-2.236.682-3.63.682H121.4v4.026h-4.356v-15.4h7.04zm-.264 7.942c.895 0 1.57-.191 2.024-.572.455-.396.682-.954.682-1.672 0-.719-.227-1.276-.682-1.672-.454-.396-1.129-.594-2.024-.594h-2.42v4.51h2.42zm23.366-7.942l-6.38 11.902c-.675 1.276-1.503 2.244-2.486 2.904-.968.66-2.031.99-3.19.99-.851 0-1.76-.191-2.728-.572l1.034-3.212c.601.176 1.115.264 1.54.264.425 0 .799-.096 1.122-.286.337-.191.645-.492.924-.902l-5.984-11.088h4.598l3.586 7.436 3.718-7.436h4.246zm15.851 0v15.4h-4.312V24.682h-5.852v11.946h-4.29v-15.4h14.454zm17.746 0v15.4h-4.312V24.682h-5.852v11.946h-4.29v-15.4h14.454z" fill="#fff"/><path d="M7.643 39.128v-12.83l22.47-16.41 6.19 4.53 6.21-4.53-12.4-9.06-29.79 21.75v16.55h7.32z" fill="#F9600A"/><path d="M31.902 39.128v-12.83l22.47-16.41h12.4l-12.4-9.06-29.79 21.75v16.55h7.32z" fill="#F9600A"/></svg>
